Adwaita++/apps/scalable/green-recorder.svg

<svg fill="none" height="128" viewBox="0 0 128 128" width="128" xmlns="http://www.w3.org/2000/svg" xmlns:xlink="http://www.w3.org/1999/xlink">
  <linearGradient id="paint0_linear" gradientUnits="userSpaceOnUse" x1="116" x2="12" y1="117.999" y2="117.999">
    <stop offset="0" stop-color="#d5d3cf"/>
    <stop offset=".038" stop-color="#e3e2df"/>
    <stop offset=".077" stop-color="#c0bfbc"/>
    <stop offset=".923" stop-color="#c0bfbc"/>
    <stop offset=".962" stop-color="#e3e2df"/>
    <stop offset="1" stop-color="#d5d3cf"/>
  </linearGradient>
  <path d="m108 68h-88c-4.4183 0-8 3.5817-8 8v32c0 4.418 3.5817 8 8 8h88c4.418 0 8-3.582 8-8v-32c0-4.4183-3.582-8-8-8z" fill="url(#paint0_linear)"/>
  <path d="m20 10c-4.432 0-8 3.568-8 8v42 42c0 4.432 3.568 8 8 8h44 44c4.432 0 8-3.568 8-8v-42-42c0-4.432-3.568-8-8-8z" fill="#2ec27e"/>
  <path d="m30.2028 43c-2.5526 0-4.6077 2.055-4.6077 4.6077v26.7871c0 2.5526 2.0551 4.6052 4.6077 4.6052h45.5952c2.5526 0 4.6077-2.0526 4.6077-4.6052v-26.7871c0-2.5527-2.0551-4.6077-4.6077-4.6077zm70.2572 4.275c-.6178.0038-1.226.1535-1.775.437l-15.8414 8.1726v10.9458l15.5435 7.2293c.6372.2963 1.3387.4276 2.0399.3817.701-.0458 1.38-.2674 1.973-.6442s1.082-.8968 1.421-1.5121c.34-.6153.519-1.3062.522-2.0089l.062-19.0663c.002-.5181-.099-1.0313-.297-1.5102-.198-.4788-.488-.9138-.855-1.2796-.367-.3659-.803-.6555-1.282-.852s-.993-.2961-1.511-.2931zm-58.6883 3.061h22.8795c5.7418 0 10.4244 4.6826 10.4244 10.4244s-4.6826 10.4244-10.4244 10.4244-10.4219-4.6826-10.4219-10.4244c0-3.1238 1.3921-5.9267 3.5799-7.84h-9.1955c2.1887 1.9133 3.5823 4.716 3.5823 7.84 0 5.7418-4.6826 10.4244-10.4243 10.4244-5.7418 0-10.4219-4.6826-10.4219-10.4244s4.6801-10.4244 10.4219-10.4244zm0 2.5621c-4.3565 0-7.8599 3.5058-7.8599 7.8623s3.5034 7.8599 7.8599 7.8599c4.3564 0 7.8623-3.5034 7.8623-7.8599 0-4.2031-3.2658-7.6051-7.408-7.84h-.4543zm22.8795 0v.0223h-.4543c-4.1421.2349-7.4056 3.6369-7.4056 7.84 0 4.3565 3.5034 7.8599 7.8599 7.8599s7.8623-3.5034 7.8623-7.8599-3.5058-7.8623-7.8623-7.8623z" opacity=".2"/>
  <path d="m29.2028 42c-2.5526 0-4.6077 2.055-4.6077 4.6077v26.7871c0 2.5526 2.0551 4.6052 4.6077 4.6052h45.5952c2.5526 0 4.6077-2.0526 4.6077-4.6052v-26.7871c0-2.5527-2.0551-4.6077-4.6077-4.6077zm70.2572 4.275c-.6178.0038-1.226.1535-1.775.437l-15.8414 8.1726v10.9458l15.5435 7.2293c.6372.2963 1.3387.4276 2.04.3817.7009-.0458 1.3799-.2674 1.9729-.6442s1.082-.8968 1.421-1.5121c.34-.6153.519-1.3062.522-2.0089l.062-19.0663c.002-.5181-.099-1.0313-.297-1.5102-.198-.4788-.488-.9138-.855-1.2796-.367-.3659-.803-.6555-1.282-.852s-.9929-.2961-1.511-.2931zm-58.6883 3.061h22.8795c5.7418 0 10.4244 4.6826 10.4244 10.4244s-4.6826 10.4244-10.4244 10.4244-10.4219-4.6826-10.4219-10.4244c0-3.1238 1.3921-5.9267 3.5799-7.84h-9.1955c2.1887 1.9133 3.5823 4.716 3.5823 7.84 0 5.7418-4.6826 10.4244-10.4243 10.4244-5.7418 0-10.4219-4.6826-10.4219-10.4244s4.6801-10.4244 10.4219-10.4244zm0 2.5621c-4.3565 0-7.8599 3.5058-7.8599 7.8623s3.5034 7.8599 7.8599 7.8599c4.3564 0 7.8623-3.5034 7.8623-7.8599 0-4.2031-3.2658-7.6051-7.408-7.84h-.4543zm22.8795 0v.0223h-.4543c-4.1421.2349-7.4056 3.6369-7.4056 7.84 0 4.3565 3.5034 7.8599 7.8599 7.8599s7.8623-3.5034 7.8623-7.8599-3.5058-7.8623-7.8623-7.8623z" fill="#f6f5f4" fill-opacity=".99"/>
</svg>

<svg xmlns="http://www.w3.org/2000/svg" fill="none" width="128" height="128" viewBox="0 0 128 128">
 <path fill="url(#paint0_linear)" d="M108 68H20C15.5817 68 12 71.5817 12 76V108C12 112.418 15.5817 116 20 116H108C112.418 116 116 112.418 116 108V76C116 71.5817 112.418 68 108 68Z"/>
 <path fill="#2EC27E" d="M20 10C15.568 10 12 13.568 12 18V60V102C12 106.432 15.568 110 20 110H64H108C112.432 110 116 106.432 116 102V60V18C116 13.568 112.432 10 108 10H20Z"/>
 <path opacity=".2" d="M30.2028 43C27.6502 43 25.5951 45.055 25.5951 47.6077V74.3948C25.5951 76.9474 27.6502 79 30.2028 79H75.798C78.3506 79 80.4057 76.9474 80.4057 74.3948V47.6077C80.4057 45.055 78.3506 43 75.798 43H30.2028ZM100.46 47.275C99.8422 47.2788 99.234 47.4285 98.685 47.712L82.8436 55.8846V66.8304L98.3871 74.0597C99.0243 74.356 99.7258 74.4873 100.427 74.4414C101.128 74.3956 101.807 74.174 102.4 73.7972C102.993 73.4204 103.482 72.9004 103.821 72.2851C104.161 71.6698 104.34 70.9789 104.343 70.2762L104.405 51.2099C104.407 50.6918 104.306 50.1786 104.108 49.6997C103.91 49.2209 103.62 48.7859 103.253 48.4201C102.886 48.0542 102.45 47.7646 101.971 47.5681C101.492 47.3716 100.978 47.272 100.46 47.275V47.275ZM41.7717 50.336H64.6512C70.393 50.336 75.0756 55.0186 75.0756 60.7604C75.0756 66.5022 70.393 71.1848 64.6512 71.1848C58.9094 71.1848 54.2293 66.5022 54.2293 60.7604C54.2293 57.6366 55.6214 54.8337 57.8092 52.9204H48.6137C50.8024 54.8337 52.196 57.6364 52.196 60.7604C52.196 66.5022 47.5134 71.1848 41.7717 71.1848C36.0299 71.1848 31.3498 66.5022 31.3498 60.7604C31.3498 55.0186 36.0299 50.336 41.7717 50.336V50.336ZM41.7717 52.8981C37.4152 52.8981 33.9118 56.4039 33.9118 60.7604C33.9118 65.1169 37.4152 68.6203 41.7717 68.6203C46.1281 68.6203 49.634 65.1169 49.634 60.7604C49.634 56.5573 46.3682 53.1553 42.226 52.9204H41.7717V52.8981ZM64.6512 52.8981V52.9204H64.1969C60.0548 53.1553 56.7913 56.5573 56.7913 60.7604C56.7913 65.1169 60.2947 68.6203 64.6512 68.6203C69.0077 68.6203 72.5135 65.1169 72.5135 60.7604C72.5135 56.4039 69.0077 52.8981 64.6512 52.8981Z"/>
 <path fill="#F6F5F4" fill-opacity=".99" d="M29.2028 42C26.6502 42 24.5951 44.055 24.5951 46.6077V73.3948C24.5951 75.9474 26.6502 78 29.2028 78H74.798C77.3506 78 79.4057 75.9474 79.4057 73.3948V46.6077C79.4057 44.055 77.3506 42 74.798 42H29.2028ZM99.46 46.275C98.8422 46.2788 98.234 46.4285 97.685 46.712L81.8436 54.8846V65.8304L97.3871 73.0597C98.0243 73.356 98.7258 73.4873 99.4271 73.4414C100.128 73.3956 100.807 73.174 101.4 72.7972C101.993 72.4204 102.482 71.9004 102.821 71.2851C103.161 70.6698 103.34 69.9789 103.343 69.2762L103.405 50.2099C103.407 49.6918 103.306 49.1786 103.108 48.6997C102.91 48.2209 102.62 47.7859 102.253 47.4201C101.886 47.0542 101.45 46.7646 100.971 46.5681C100.492 46.3716 99.9781 46.272 99.46 46.275V46.275ZM40.7717 49.336H63.6512C69.393 49.336 74.0756 54.0186 74.0756 59.7604C74.0756 65.5022 69.393 70.1848 63.6512 70.1848C57.9094 70.1848 53.2293 65.5022 53.2293 59.7604C53.2293 56.6366 54.6214 53.8337 56.8092 51.9204H47.6137C49.8024 53.8337 51.196 56.6364 51.196 59.7604C51.196 65.5022 46.5134 70.1848 40.7717 70.1848C35.0299 70.1848 30.3498 65.5022 30.3498 59.7604C30.3498 54.0186 35.0299 49.336 40.7717 49.336V49.336ZM40.7717 51.8981C36.4152 51.8981 32.9118 55.4039 32.9118 59.7604C32.9118 64.1169 36.4152 67.6203 40.7717 67.6203C45.1281 67.6203 48.634 64.1169 48.634 59.7604C48.634 55.5573 45.3682 52.1553 41.226 51.9204H40.7717V51.8981ZM63.6512 51.8981V51.9204H63.1969C59.0548 52.1553 55.7913 55.5573 55.7913 59.7604C55.7913 64.1169 59.2947 67.6203 63.6512 67.6203C68.0077 67.6203 71.5135 64.1169 71.5135 59.7604C71.5135 55.4039 68.0077 51.8981 63.6512 51.8981Z"/>
 <defs>
  <linearGradient id="paint0_linear" x1="116" x2="12" y1="117.999" y2="117.999" gradientUnits="userSpaceOnUse">
   <stop stop-color="#D5D3CF"/>
   <stop offset=".038" stop-color="#E3E2DF"/>
   <stop offset=".077" stop-color="#C0BFBC"/>
   <stop offset=".923" stop-color="#C0BFBC"/>
   <stop offset=".962" stop-color="#E3E2DF"/>
   <stop offset="1" stop-color="#D5D3CF"/>
  </linearGradient>
 </defs>
</svg>
